!!!!SEGMENT: pl-kk--kk-i-40--009-003_lasso-orlando-di--missa-sexti-toni-sanctus.krn
!!!cenid: 16xx:1312
!!!COM: Lasso, Orlando di
!!!COM-rismid: pe506
!!!CDT: ~1532-1594/06/14
!!!CNT: French-Flemish
!!!OTL: Missa Sexti Toni – Sanctus
!!!PDT:
!!!AGN: Sacred; Mass
!!!SMS-siglum: PL-Kk
!!!SMS-shelfmark: Kk.I.40
!!!SMS-shelfwork: 009-003 M
!!!SMS-variant:
!!!SMS-altvar:
!!!NIFC-rismid: 1001154531
!!!URL-scan: http://repozytorium.nifc.pl/skany/pl-kk-nut--i-40
!!!ONB-nifc: UWAGA: części Mszy: 1. Kyrie, 2. Et in terra, 3. Sanctus, 4. Agnus Dei. Skan 0012-0013
**kern	**text
*I"Baſso Ripieno.	*
*I'B rip	*
*clefF4	*
*k[b-]	*
*M2/1	*
*met(C|)	*
=1-	=1-
!LO:TX:t=P:problem:przy kluczu BB- B-	!
00r	.
=2-	=2-
.	.
=3-	=3-
!LO:TX:t=P:problem:kreska pseudotaktowa	!
1r	.
*2\right	*
2.F\	San-
!LO:TX:t=P:problem:kreska pseudotaktowa	!
4E\	.
=4-	=4-
4D/	.
4C/	.
4D/	.
!LO:TX:t=P:problem:kreska pseudotaktowa	!
4E/	.
2.F\	.
4E\	.
=5-	=5-
2D/	.
!LO:TX:t=P:problem:kreska pseudotaktowa	!
2C/	.
1BB-	.
=6-	=6-
!LO:TX:t=P:problem:kreska pseudotaktowa	!
1AA	-ctus
1r	.
=7-	=7-
*	*ij
2.F\	San-
!LO:TX:t=P:problem:kreska pseudotaktowa	!
4E\	.
4D/	.
4C/	.
4BB-/	.
4AA/	.
=8-	=8-
*lig	*
1GG	.
1D	.
*Xlig	*
=9-	=9-
!LO:TX:t=P:problem:kreska pseudotaktowa	!
1C	-ctus
*	*Xij
2r	.
2.F\	Do-
=10-	=10-
.	.
4F\	-mi-
!LO:TX:t=P:problem:kreska pseudotaktowa	!
2D\	-n(us)
2C/	De-
2F,<\	-us
=11-	=11-
4BB-/	Sab-
4C/	.
4D/	.
!LO:TX:t=P:problem:kreska pseudotaktowa	!
4E/	.
2F\	.
2D/	.
=12-	=12-
2.C/	.
8BB-/L	ba-
8AA/J	.
!LO:TX:t=P:problem:kreska pseudotaktowa	!
1GG	-oth
!LO:LB:g=original	!
=13-	=13-
2r	.
2.BB-/	Do-
4BB-/	-mi-
!LO:TX:t=P:problem:kreska pseudotaktowa	!
2BB-/	-n(us)
=14-	=14-
4FF/	De-
4GG/	.
4AA/	.
4BB-/	.
2C/	.
!LO:TX:t=P:problem:kreska pseudotaktowa	!
2GG/	-us
=15-	=15-
2.C/	Sab-
4D/	.
2E\	.
2F\	-ba-
=16-	=16-
!LO:TX:t=P:problem:kreska pseudotaktowa	!
1BB-	-oth.
1r	.
=17-	=17-
2r	.
2.F\	Do-
4F\	-mi-
!LO:TX:t=P:problem:kreska pseudotaktowa	!
2F\	-n(us)
=18-	=18-
2C/	De-
2AA,</	-us
2BB-/	Sab-
!LO:TX:t=P:problem:kreska pseudotaktowa	!
2C/	-ba-
=19-	=19-
2FF/	-oth
*	*ij
2.F\	Do-
4F\	-mi-
2D\	-nus
=20-	=20-
2BB-/	De-
!LO:TX:t=P:problem:kreska pseudotaktowa	!
2F\	-us
2BB-/	Sab-
2BB-/	-ba-
=21-	=21-
0Fl;	-oth
*	*Xij
=22||	=22||
*M2/1	*
*met(C|)	*
0C	Ple-
=23-	=23-
1GG,<	-ni
!LO:TX:t=P:problem:kreska pseudotaktowa	!
1G	sunt
!LO:LB:g=original	!
=24-	=24-
1F	Cae-
1A	-li
=25-	=25-
!LO:TX:t=P:problem:kreska pseudotaktowa	!
1G	et
0D	ter-
=26-	=26-
.	.
!LO:TX:t=P:problem:kreska pseudotaktowa	!
1C	-ra
=27-	=27-
1.G	glo-
2GG/	-ri-
=28-	=28-
!LO:TX:t=P:problem:kreska pseudotaktowa	!
1C	-a
1BB-	tu-
=29-	=29-
!LO:TX:t=P:problem:kreska pseudotaktowa	!
1F	-a
1.C	glo-
=30-	=30-
.	.
2C/	-ri-
!LO:TX:t=P:problem:kreska pseudotaktowa	!
1F	-a
=31-	=31-
0BB-	tu-
=32-	=32-
0Fl;	-a
=33||	=33||
*M3/2	*
2F\	O-
2F\	-san-
!LO:TX:t=P:problem:kreska pseudotaktowa	!
2F\	-na
=34-	=34-
2D/	in
2C/	ex-
2C/	-cel-
=35-	=35-
1BB-,	-ſis
*	*ij
!LO:TX:t=P:problem:kreska pseudotaktowa	!
2BB-/	O-
=36-	=36-
2F\	-san-
2BB-/	-na
!LO:TX:t=P:problem:kreska pseudotaktowa	!
2D/	in
=37-	=37-
2C/	ex-
2F\	-cel-
!LO:TX:t=P:problem:kreska pseudotaktowa	!
2BB-,</	-ſis
*	*Xij
=38-	=38-
2F\	O-
2F\	-san-
!LO:TX:t=P:problem:kreska pseudotaktowa	!
2F\	-na
!LO:PB:g=original	!
=39-	=39-
2D/	in
2C/	ex-
2F\	-cel-
=40-	=40-
1BB-,<	-ſis
*	*ij
!LO:TX:t=P:problem:kreska pseudotaktowa	!
2C/	O-
=41-	=41-
2C/	-san-
2D,</	-na
2C/	in
=42-	=42-
2F\	ex-
!LO:TX:t=P:problem:kreska pseudotaktowa	!
1C	-cel-
=43-	=43-
1F,<	-ſis
*	*Xij
!LO:TX:t=P:problem:kreska pseudotaktowa	!
2C/	O-
=44-	=44-
4C/	-san-
4D/	-na
4C/	in
4BB-/	ex-
!LO:TX:t=P:problem:kreska pseudotaktowa	!
2C/	-cel-
=45-	=45-
1F	-ſis
!LO:TX:t=P:problem:kreska pseudotaktowa	!
2r	.
=46-	=46-
1.r	.
=47-	=47-
*	*ij
2C/	O-
4C/	-san-
4D/	-na
4C/	in
!LO:TX:t=P:problem:kreska pseudotaktowa	!
4BB-/	ex-
=48-	=48-
2C/	-cel-
2F,<\	-ſis
*	*Xij
!LO:TX:t=P:problem:kreska pseudotaktowa	!
2C/	O-
=49-	=49-
4C/	-san-
4D/	-na
4C/	in
4BB-/	ex-
!LO:TX:t=P:problem:kreska pseudotaktowa	!
2C/	-cel-
=50-	=50-
1F,<	-ſis
*	*ij
!LO:TX:t=P:problem:kreska pseudotaktowa	!
2C/	O-
=51-	=51-
4C/	-san-
4D/	-na
4C/	in
4BB-/	ex-
!LO:TX:t=P:problem:kreska pseudotaktowa	!
2C/	-cel-
=52-	=52-
2F,<\	-ſis
*	*Xij
!LO:TX:t=P:problem:kreska pseudotaktowa	!
1BB-	in
=53-	=53-
2AA/	ex-
1BB-	-cel-
=54-	=54-
!LO:TX:a:Bi:t=Benedict(us) Tacet. Osanna da Capo.	!
1.Fl;	-ſis.
==	==
*-	*-
!!!RDF**kern: < = below
!!!RDF**kern: l = terminal long
!!!ENC: Andrzej Kubiczek
!!!END: 2021-08-02
!!!ENC: Krzysztof Stępień
!!!END: 2021-07-05
